icons/list-compact.svg

<svg fill="none" stroke="currentColor" stroke-linecap="round" stroke-linejoin="round" stroke-width="1.5" viewBox="0 0 24 24"><path d="m12.456 6.154.408.277.332.751.224 1.116.083 1.368v2.885l-.083 1.368-.224 1.115-.332.751-.408.278H2.869l-.408-.278-.332-.751-.224-1.115-.083-1.368V9.666l.083-1.368.224-1.116.332-.751.408-.277zm0 2.926H2.869c-.096 0-.174.262-.174.586v2.885c0 .323.078.585.174.585h9.587c.096 0 .174-.262.174-.585V9.666c0-.324-.078-.586-.174-.586m0-16.141.408.277.332.751.224 1.116.083 1.368v2.885L13.42.704l-.224 1.115-.332.752-.408.277H2.869l-.408-.277-.332-.752L1.905.704 1.822-.664v-2.885l.083-1.368.224-1.116.332-.751.408-.277zm0 2.927H2.869c-.096 0-.174.262-.174.585v2.885c0 .323.078.585.174.585h9.587c.096 0 .174-.262.174-.585v-2.885c0-.323-.078-.585-.174-.585m0 23.493.408.277.332.751.224 1.116.083 1.368v2.885l-.083 1.368-.224 1.115-.332.751-.408.278H2.869l-.408-.278-.332-.751-.224-1.115-.083-1.368v-2.885l.083-1.368.224-1.116.332-.751.408-.277zm0 2.926H2.869c-.096 0-.174.262-.174.586v2.884c0 .324.078.586.174.586h9.587c.096 0 .174-.262.174-.586v-2.884c0-.324-.078-.586-.174-.586" transform="matrix(1.71939 0 0 .5125 -1.175 6.307)"/></svg>

<?xml version="1.0" encoding="UTF-8" standalone="no"?>
<!DOCTYPE svg PUBLIC "-//W3C//DTD SVG 1.1//EN" "http://www.w3.org/Graphics/SVG/1.1/DTD/svg11.dtd">
<svg width="100%" height="100%" viewBox="0 0 24 24" version="1.1" xmlns="http://www.w3.org/2000/svg" xmlns:xlink="http://www.w3.org/1999/xlink" xml:space="preserve" xmlns:serif="http://www.serif.com/" style="fill-rule:evenodd;clip-rule:evenodd;stroke-linejoin:round;stroke-miterlimit:2;">
    <g transform="matrix(1.71939,0,0,0.5125,-1.17494,6.30709)">
        <path d="M12.456,6.154L12.864,6.431L13.196,7.182L13.42,8.298L13.503,9.666L13.503,12.551L13.42,13.919L13.196,15.034L12.864,15.785L12.456,16.063L2.869,16.063L2.461,15.785L2.129,15.034L1.905,13.919L1.822,12.551L1.822,9.666L1.905,8.298L2.129,7.182L2.461,6.431L2.869,6.154L12.456,6.154ZM12.456,9.08L2.869,9.08C2.773,9.08 2.695,9.342 2.695,9.666L2.695,12.551C2.695,12.874 2.773,13.136 2.869,13.136L12.456,13.136C12.552,13.136 12.63,12.874 12.63,12.551L12.63,9.666C12.63,9.342 12.552,9.08 12.456,9.08ZM12.456,-7.061L12.864,-6.784L13.196,-6.033L13.42,-4.917L13.503,-3.549L13.503,-0.664L13.42,0.704L13.196,1.819L12.864,2.571L12.456,2.848L2.869,2.848L2.461,2.571L2.129,1.819L1.905,0.704L1.822,-0.664L1.822,-3.549L1.905,-4.917L2.129,-6.033L2.461,-6.784L2.869,-7.061L12.456,-7.061ZM12.456,-4.134L2.869,-4.134C2.773,-4.134 2.695,-3.872 2.695,-3.549L2.695,-0.664C2.695,-0.341 2.773,-0.079 2.869,-0.079L12.456,-0.079C12.552,-0.079 12.63,-0.341 12.63,-0.664L12.63,-3.549C12.63,-3.872 12.552,-4.134 12.456,-4.134ZM12.456,19.359L12.864,19.636L13.196,20.387L13.42,21.503L13.503,22.871L13.503,25.756L13.42,27.124L13.196,28.239L12.864,28.99L12.456,29.268L2.869,29.268L2.461,28.99L2.129,28.239L1.905,27.124L1.822,25.756L1.822,22.871L1.905,21.503L2.129,20.387L2.461,19.636L2.869,19.359L12.456,19.359ZM12.456,22.285L2.869,22.285C2.773,22.285 2.695,22.547 2.695,22.871L2.695,25.755C2.695,26.079 2.773,26.341 2.869,26.341L12.456,26.341C12.552,26.341 12.63,26.079 12.63,25.755L12.63,22.871C12.63,22.547 12.552,22.285 12.456,22.285Z" style="fill:white;"/>
    </g>
</svg>
